dist/svgs/devui-icons/op/shrink.svg

<?xml version="1.0" encoding="UTF-8"?>
<svg width="16px" height="16px" viewBox="0 0 16 16" version="1.1" xmlns="http://www.w3.org/2000/svg" xmlns:xlink="http://www.w3.org/1999/xlink">
    <title>操作/avelcon-shrink</title>
    <desc>Created with Sketch.</desc>
    <g id="操作/avelcon-shrink" stroke="none" stroke-width="1" fill="none" fill-rule="evenodd">
        <path d="M11.1213203,4.12132034 L14.2426407,1 L14.9497475,1.70710678 L11.8284271,4.82842712 L15,8 L8,8 L8,1 L11.1213203,4.12132034 Z M3.82842712,12.8284271 L0.707106781,15.9497475 L-1.42108547e-14,15.2426407 L3.12132034,12.1213203 L-1.42108547e-14,9 L7,9 L7,16 L3.82842712,12.8284271 Z" id="形状" fill="#293040"></path>
    </g>
</svg>

<svg xmlns="http://www.w3.org/2000/svg" viewBox="0 0 16 16"><path fill-rule="evenodd" d="M11.121 4.121L14.243 1l.707.707-3.122 3.121L15 8H8V1l3.121 3.121zm-7.293 8.707L.708 15.95 0 15.243l3.121-3.122L0 9h7v7l-3.172-3.172z"/></svg>
